images/svg/icon-1.svg

<svg width="66" height="70" viewBox="0 0 66 70" fill="none" xmlns="http://www.w3.org/2000/svg">
<path d="M65.3163 48.3385L46.8468 29.7337L48.8966 19.6373C49.4256 19.8438 49.9879 19.9517 50.5556 19.9558H50.5696C53.1777 19.9866 55.3169 17.8974 55.3479 15.2893C55.3788 12.6812 53.2894 10.542 50.6813 10.5111C48.0732 10.4803 45.934 12.5695 45.9031 15.1776C45.8965 15.7357 45.9888 16.2905 46.176 16.8163L35.326 18.1405L17.6276 0.35C17.4105 0.128479 17.1141 0.00247917 16.804 0C16.4977 0.00160417 16.2044 0.123521 15.9873 0.3395L12.6786 3.6295C12.2232 4.08508 12.2232 4.82358 12.6786 5.27917L14.459 7.08517C7.56162 19.7681 9.80191 35.4741 19.9703 45.7228C20.0636 45.8121 20.1718 45.8843 20.29 45.9363C20.2165 46.3311 20.1781 46.7317 20.1756 47.1333V60.6667H6.17562C2.95562 60.6705 0.346077 63.28 0.342285 66.5V68.8333C0.342285 69.4776 0.86466 70 1.50895 70H55.1756C55.8199 70 56.3423 69.4776 56.3423 68.8333V66.5C56.3385 63.28 53.729 60.6705 50.509 60.6667H36.509V54.6688C38.7021 55.1288 40.9367 55.3633 43.1776 55.3688C48.5548 55.363 53.8464 54.0225 58.5776 51.4675L60.3673 53.2677C60.5844 53.4892 60.8808 53.6152 61.191 53.6177C61.4972 53.6161 61.7905 53.4941 62.0076 53.2782L65.3163 49.9882C65.7717 49.5326 65.7717 48.7941 65.3163 48.3385ZM48.9246 13.6348C49.8383 12.726 51.3157 12.7301 52.2244 13.6437C53.1332 14.5574 53.1291 16.0348 52.2155 16.9435C51.7781 17.3785 51.1864 17.6226 50.5695 17.6225H50.5625C49.2739 17.6158 48.2345 16.5658 48.2412 15.2771C48.2445 14.6602 48.4918 14.0699 48.9291 13.6348H48.9246ZM46.1783 21.301L44.8693 27.7445L42.298 25.158L46.1783 21.301ZM44.853 19.3282L40.653 23.5037L37.4038 20.237L44.853 19.3282ZM50.509 63C52.442 63 54.009 64.567 54.009 66.5V67.6667H2.67562V66.5C2.67562 64.567 4.2426 63 6.17562 63H50.509ZM34.1756 58.3333V60.6667H22.509V58.3333H34.1756ZM22.509 56V47.1333C22.509 44.303 25.1258 42 28.3423 42C31.5588 42 34.1756 44.303 34.1756 47.1333V56H22.509ZM36.509 52.29V47.1333C36.509 43.0162 32.8456 39.6667 28.3423 39.6667C25.4306 39.622 22.7079 41.1041 21.165 43.5738C12.2887 34.2249 10.2899 20.2875 16.1805 8.82073L56.872 49.7455C50.5886 52.9419 43.3857 53.8418 36.509 52.29ZM61.2038 50.7943L59.56 49.1412L16.7923 6.11567L15.1415 4.46133L16.7923 2.81633L34.15 20.272C34.1581 20.272 34.1628 20.2872 34.171 20.293L62.8593 49.1493L61.2038 50.7943Z" fill="#212121"/>
<path d="M28.3527 44.3333H28.3422C26.4091 44.3304 24.8398 45.895 24.8369 47.8281C24.834 49.7611 26.3986 51.3304 28.3317 51.3333H28.3422C30.2752 51.3362 31.8445 49.7716 31.8474 47.8386C31.8503 45.9055 30.2857 44.3362 28.3527 44.3333ZM29.1693 48.6605C28.9497 48.8789 28.6521 49.0011 28.3422 49C27.6979 48.9966 27.1783 48.4716 27.1816 47.8273C27.1832 47.5189 27.3069 47.2237 27.5255 47.0061C27.7426 46.7902 28.0359 46.6682 28.3422 46.6666C28.9865 46.67 29.5061 47.195 29.5027 47.8393C29.5011 48.1477 29.3774 48.4429 29.1588 48.6605H29.1693Z" fill="#2196F3"/>
</svg>

<svg width="66" height="70" fill="none" xmlns="http://www.w3.org/2000/svg">
  <path d="M65.32 48.34l-18.47-18.6 2.05-10.1c.53.2 1.09.31 1.66.32h.01a4.72 4.72 0 10-4.4-3.14l-10.84 1.32L17.63.35A1.17 1.17 0 0016.8 0c-.3 0-.6.12-.81.34l-3.31 3.29c-.46.46-.46 1.2 0 1.65l1.78 1.8a32.69 32.69 0 005.51 38.64c.1.1.2.16.32.22-.07.4-.11.8-.11 1.2v13.53h-14A5.84 5.84 0 00.34 66.5v2.33c0 .65.52 1.17 1.17 1.17h53.67c.64 0 1.16-.52 1.16-1.17V66.5a5.84 5.84 0 00-5.83-5.83h-14v-6a32.48 32.48 0 0022.07-3.2l1.79 1.8c.21.22.51.35.82.35.3 0 .6-.13.82-.34l3.3-3.3c.46-.45.46-1.19 0-1.64zm-16.4-34.7a2.33 2.33 0 111.65 3.98 2.33 2.33 0 01-1.64-3.99zm-2.74 7.66l-1.31 6.44-2.57-2.58 3.88-3.86zm-1.33-1.97l-4.2 4.17-3.25-3.26 7.45-.91zM50.51 63a3.5 3.5 0 013.5 3.5v1.17H2.68V66.5a3.5 3.5 0 013.5-3.5H50.5zm-16.33-4.67v2.34H22.5v-2.34h11.67zM22.5 56v-8.87c0-2.83 2.62-5.13 5.83-5.13 3.22 0 5.84 2.3 5.84 5.13V56H22.5zm14-3.71v-5.16c0-4.11-3.66-7.46-8.17-7.46a8.31 8.31 0 00-7.18 3.9 30.34 30.34 0 01-4.98-34.75l40.7 40.93a30.23 30.23 0 01-20.37 2.54zm24.7-1.5l-1.65-1.65L16.79 6.12l-1.65-1.66 1.65-1.64 17.36 17.45.02.02 28.69 28.86-1.66 1.64z" fill="#212121"/>
  <path d="M28.35 44.33a3.5 3.5 0 10-.02 7h.01a3.5 3.5 0 10.01-7zm.82 4.33a1.17 1.17 0 11-.83-2 1.17 1.17 0 01.82 2z" fill="#2196F3"/>
</svg>
